!!!COM: Scarlatti, Domenico
!!!CDT: 1685-1757
!!!OTL: Sonata in C major, L.8, K.461
!!!SCT: K. 461
!!!SCT: L. 8
!!!OMD: Allegro ([quarter-dot]=88)
**kern	**kern	**dynam
*staff2	*staff1	*staff1/2
*Icemba	*Icemba	*
*I"L.8 (K.461)	*I"L.8 (K.461)	*
*clefF4	*clefG2	*
*>[A,A,B,B]	*>[A,A,B,B]	*>[A,A,B,B]
*>norep[A,B]	*>norep[A,B]	*>norep[A,B]
*>A	*>A	*>A
*k[]	*k[]	*
*C:	*C:	*
*M3/8	*M3/8	*
*MM132	*MM132	*
=1-	=1-	=1-
*clefG2	*	*
(8ccL	(8eeL	p
8b	8dd	.
8ccJ)	8eeJ)	.
=2	=2	=2
.	(32ddqq	.
4.g	4.ddT)	.
*clefF4	*	*
=3	=3	=3
(8cL	(8eL	.
8B	8d	.
8cJ)	8eJ)	.
=4	=4	=4
.	(32eqq	.
4.G	4.dT)	.
=5	=5	=5
8E (8cL	4.r	<
8F 8d)	.	.
8G' 8e'J	.	[[
=6	=6	=6
*^	*	*
(4f	(8AL	8r	mf >
.	8B	(8dddL	.
8e)	8cJ)	8cccJ)	]]
*v	*v	*	*
=7	=7	=7
8E (8cL	4.r	p <
8F 8d)	.	.
8G' 8e'J	.	[[
!!LO:LB:g=z
=8	=8	=8
*^	*	*
(4f	(8AL	8r	mf >
.	8B	(8dddL	.
8e)	8cJ)	8cccJ)	]]
*v	*v	*	*
=9	=9	=9
(<16fLL	(16gLL	p
16e	16a	.
16d	16b	.
16c	16cc	.
16B	16dd	.
16AJJ	16eeJJ	.
=10	=10	=10
.	(8ggq	.
!	!	!LO:DY:b
16GLL	4ff)	sf
16GG	.	.
16BB	.	.
16DJ	.	.
8C'J)	8ee')	.
=11	=11	=11
(<16fLL	(16gLL	.
16e	16a	.
16d	16b	.
16c	16cc	.
16B	16dd	.
16AJJ	16eeJJ	.
=12	=12	=12
.	(8ggq	.
!	!	!LO:DY:b
16GLL	4ff)	sf
16GG	.	.
16BB	.	.
16DJ	.	.
8C'J)	8ee')	.
=13	=13	=13
(<16dLL	(>16eLL	.
16c	16f#	.
16B	16g#	.
16A	16a	.
16G#	16b	.
16F#JJ	16ccJJ	.
!!LO:LB:g=z
=14	=14	=14
.	(8eeq	.
16ELL	4dd)	sf
16EE	.	.
16GG#	.	.
16BBJ	.	.
8AA'J)	8cc')	.
=15	=15	=15
(<16dLL	(16eLL	.
16c	16f#	.
16B	16g#	.
16A	16a	.
16G#	16b	.
16F#JJ	16ccJJ	.
=16	=16	=16
.	(8eeq	.
!	!	!LO:DY:b
16ELL	4dd)	sf
16EE	.	.
16GG#	.	.
16BBJ	.	.
8AA'J)	8cc')	.
*clefG2	*	*
=17	=17	=17
(>8aaL	(>16cccLL	mf
.	16ddd	.
8gg	16eee	.
.	16bb	.
8ff#J	16aa	.
.	16bbJJ	.
=18	=18	=18
8eeL	16cccLL	>
.	16gg	.
8dd#	16ff#	.
.	16gg	.
8ccnJ	16aa	.
.	16eeJJ	.
!!LO:LB:g=z
=19	=19	=19
8bL	16dd#LL	.
.	16ee	.
8a	16ff#	.
.	16cc	.
8g#J	16b	.
.	16ccJJ	.
=20	=20	=20
8fnL	16ddnLL	p
.	16a	.
8e	16g#	.
.	16a	.
8dJ	16b	.
.	16fnJJ	.
=21	=21	=21
8c#L	16eLL	.
.	16f	.
8B-J)	16g	.
.	16dJJ)	.
(<8A	(16eeLL	f
.	16ffJJ	.
=22	=22	=22
8b-L	16ggLL	.
.	16dd	.
8a	16cc#	.
.	16dd	.
8gJ	16ee	.
.	16b-JJ	.
=23	=23	=23
8fL	16aLL	>
.	16b-	.
8e-	16ccn	.
.	16g	.
8dJ	16f#	.
.	16gJJ)	.
*clefF4	*	*
!!LO:LB:g=z
=24	=24	=24
8cL	(16aLL	.
.	16e-	.
8B-	16d	.
.	16g	.
8AJ	16c	.
.	16f#JJ	.
=25	=25	=25
8GL	16B-LL	.
.	16c	.
8Fn	16d	.
.	16A	.
8E-J	16G)	.
.	([16gJJ	mf
=26	=26	=26
4.D)	16gLL]	.
.	16a	.
.	16f#	.
.	16d	.
.	16c#)	.
.	([16gJJ	.
=27	=27	=27
4.DD^	16gLL]	.
.	16a	.
.	16f#	.
.	16d	.
.	16cc#	.
.	[>16ggJJ	.
=28	=28	=28
!	!LO:TX:i:b:t=rit.	!
4.DD^	8ggL]	>
.	16ff#L	.
.	16eeJ	.
.	8ddJ)	]]
!!LO:LB:g=z
=29	=29	=29
!	!	!LO:DY:t=%s in tempo
(16dLL	(16f#LL	p
16c	16g	.
16B	16a	.
16A	16b	.
16G	16cc	.
16F#JJ	16ddJJ	.
=30	=30	=30
16GLL	16bLL	.
16F#	16cc	.
16E	16dd	.
16D	16ee	.
16C	16ff#	.
16BBJJ)	16ggJJ)	.
=31	=31	=31
!!LO:LB:g=z
(16dLL	(16f#LL	.
16c	16g	.
16B	16a	.
16A	16b	.
16G	16cc	.
16F#JJ	16ddJJ	.
=32	=32	=32
16GLL	16bLL	.
16F#	16cc	.
16E	16dd	.
16D	16ee	.
16C	16ff#	.
16BBJJ)	16ggJJ)	.
=33	=33	=33
(16CLL	(16eeLL	<
16BB	16ff#	.
16AA	16gg	.
16GG	16aa	.
16FF#	16bb	.
16EEJJ	16cccJJ	.
!!LO:LB:g=z
=34	=34	=34
4DD	16ddLL	.
.	16ccc	.
.	16bb	.
.	16aa	.
8GG)	16bb	.
.	16ggJJ)	.
=35	=35	=35
*	*^	*
(8CL	(16eeLL	8ccL	f
.	16aa	.	.
8D)	16dd	8b	.
.	16gg	.	.
8DD'J	16cc	8aJ	.
.	16ff#JJ	.	.
*	*v	*v	*
=36	=36	=36
4.GG	16ggLL	.
.	16dd	>
.	16b	.
.	16dd	.
.	16g	.
.	16eeJJ)	]]
=37	=37	=37
(16dLL	(16f#LL	p
16c	16g	.
16B	16a	.
16A	16b	.
16G	16cc	.
16F#JJ	16ddJJ	.
=38	=38	=38
16GLL	16bLL	.
16F#	16cc	.
16E	16dd	.
16D	16ee	.
16C	16ff#	.
16BBJJ)	16ggJJ)	.
!!LO:LB:g=z
=39	=39	=39
(16dLL	(16f#LL<	.
16c	16g	.
16B	16a	.
16A	16b	.
16G	16cc	.
16FJJ	16ddJJ	.
=40	=40	=40
16GLL	16bLL	.
16F#	16cc	.
16E	16dd	.
16D	16ee	.
16C	16ff#	.
16BBJJ)	16ggJJ)	.
=41	=41	=41
(16CLL	(16eeLL	<
16BB	16ff#	.
16AA	16gg	.
16GG	16aa	.
16FF#	16bb	.
16EEJJ	16cccJJ	.
=42	=42	=42
4DD	16ddLL	.
.	16ccc	.
.	16bb	.
.	16aa	.
8GG)	16bb	.
.	16ggJJ)	.
=43	=43	=43
*	*^	*
(8CL	(16eeLL	8ccL	f
.	16aa	.	.
8D)	16dd	8b	.
.	16gg	.	.
8DD'J	16cc	8aJ	.
.	16ff#JJ	.	.
*	*v	*v	*
!!LO:LB:g=z
=44	=44	=44
16GG'	8b' 8gg')	.
(16f#LL	.	.
16g	8r	.
16d	.	.
16e	8r	.
16BJJ	.	.
=45	=45	=45
16cLL	8r	.
16e	.	.
16d	8gg' 8aa'L	.
16c	.	.
16B	8ff#' 8ccc'J	.
16AJJ	.	.
=46	=46	=46
16GLL)	8gg' 8bb'	.
(16f#	.	.
16g	8r	.
16d	.	.
16e	8r	.
16BJJ	.	.
=47	=47	=47
16cLL	8r	.
16e	.	.
16d	8gg' 8aa'L	.
16c	.	.
16B	8ff#' 8ccc'J	.
16AJJ	.	.
=48	=48	=48
16GLL)	8gg' 8bb'	.
(16f#	.	.
16g	8r	.
16d	.	.
16e	8r	.
16BJJ	.	.
!!LO:LB:g=z
=49	=49	=49
16cLL	8r	.
16e	.	.
16d	8gg' 8aa'L	.
16c	.	.
16B	8ff#' 8ccc'J	.
16AJJ	.	.
=50	=50	=50
8GL	(16bbLL	.
.	16ff#	.
8B)	16gg	.
.	16dd	.
8c'J	16ee	.
.	16bJJ	.
=51	=51	=51
8C'L	16ccLL	.
.	16ee	.
(8D	16dd	.
.	16cc	.
8DDJ	16b	.
.	16aJJ	.
=52	=52	=52
8GGL	16gLL	.
.	16f#	.
8BB)	16g	.
.	16d	.
8C'J	16e	.
.	16BJJ	.
=53	=53	=53
8CC'	16cLL	.
.	16e	.
(4DD	16d	.
.	16c	.
.	16B	.
.	16AJJ	.
=54	=54	=54
4.GGG)	4.G)	.
!!LO:LB:g=z
=55:|!|:	=55:|!|:	=55:|!|:
*>B	*>B	*>B
*k[b-e-]	*k[b-e-]	*k[b-e-]
(16GLL	8r	p
16d	.	.
16B-	8dd'L	.
16d	.	.
16G	8dd'J	.
16dJJ)	.	.
=56	=56	=56
*ped	*	*
(16F#LL	(<8dd^L	<
16d	.	.
*Xped	*	*
16A	8cc') 8dd'	.
16d	.	.
16F#	8cc' 8dd'J	.
16dJJ)	.	.
=57	=57	=57
*ped	*	*
(16GLL	(<8cc^ 8dd^L	.
16d	.	.
*Xped	*	*
16B-	8b-') 8dd'	.
16d	.	.
16G	8b-' 8dd'J	.
16dJJ)	.	.
=58	=58	=58
*ped	*	*
(16DLL	(<8b-^ 8dd^L	.
16d	.	.
*Xped	*	*
16A	8a') 8dd'	.
16d	.	.
16D	8a' 8dd'J	.
16dJJ)	.	.
=59	=59	=59
*ped	*	*
(16E-LL	(8a^ 8dd^L	mf
16G	.	.
*Xped	*	*
16c	8g') 8cc'	.
16G	.	>
16E-	8g' 8cc'J	.
16cJJ)	.	.
!!LO:LB:g=z
=60	=60	=60
*ped	*	*
(16DLL	8g^ (>8b-^L	.
16d	.	.
*Xped	*	*
16A	8g' 8a')	.
16d	.	.
16D	8f#' 8a'J	.
16dJJ)	.	.
=61	=61	=61
*ped	*	*
(16GLL	8g' 8b-'	p
16d	.	.
*Xped	*	*
16B-	8dd'L	.
16d	.	.
16G	8dd'J	.
16dJJ)	.	.
=62	=62	=62
*ped	*	*
16F#LL	(<8dd^L	<
16d	.	.
*Xped	*	*
16A	8cc') 8dd'	.
16d	.	.
16F#	8cc' 8dd'J	.
16dJJ	.	.
=63	=63	=63
*ped	*	*
(16GLL	(<8cc^ 8dd^L	.
16d	.	.
*Xped	*	*
16B-	8b-') 8dd'	.
16d	.	.
16G	8b-' 8dd'J	.
16dJJ)	.	.
=64	=64	=64
*ped	*	*
(16DLL	8b-^ (<8dd^L	.
16d	.	.
*Xped	*	*
16B-	8a-' 8ff')	.
16d	.	.
16D	8a-' 8ff'J	.
16dJJ)	.	.
!!LO:LB:g=z
=65	=65	=65
*ped	*	*
(16E-LL	8a-^ (8ff^L	mf
16e-	.	.
*Xped	*	*
16G	8g' 8ee-')	.
16e-	.	.
16E-	8g' 8ee-'J	.
16e-JJ)	.	.
=66	=66	=66
*ped	*	*
(16BB-LL	8g^ (8ee-^L<	.
16B-	.	.
*Xped	*	*
16F	8f' 8dd')	.
16B-	.	.
16BB-	8f' 8dd'J	.
16B-JJ)	.	.
=67	=67	=67
*ped	*	*
(16CLL	(8f^ 8dd^L	.
16c	.	.
*Xped	*	*
16G	8e-') 8cc'	.
16c	.	.
16C	8e-' 8cc'J	.
16cJJ)	.	.
=68	=68	=68
*ped	*	*
(16GGLL>	(8e-^ 8cc^L	.
16G	.	.
*Xped	*	*
16D	8d') 8bn'	.
16G	.	.
16GG	8d' 8g'J	p
16GJJ)	.	.
=69	=69	=69
*ped	*	*
(16AA-LL	(8d^ 8g^L	.
16F	.	.
*Xped	*	*
16C	8c') 8f'	.
16F	.	.
16AA-	8c' 8d'J	.
16FJJ)	.	.
!!LO:LB:g=z
=70	=70	=70
*ped	*	*
(16GGLL>	(8c^ 8e-^L	.
16G	.	.
*Xped	*	*
16D	8Bn') 8d'	.
16G	.	mf
16GG	8B' 8g'J	.
16GJJ)	.	.
=71	=71	=71
*ped	*	*
(16AA-LL	8c^ (>8g^L	.
16F	.	.
*Xped	*	*
16C	8c' 8f')	.
16F	.	.
16AA-	8d' 8cc'J	.
16FJJ)	.	.
=72	=72	=72
*	*^	*
*ped	*	*	*
(16GGLL>	(8ccL	(8e-L	.
16G	.	.	.
*Xped	*	*	*
16D	16bnL	8g	.
16G	16ccJ	.	.
16GG	8dd'J)	8f'J)	.
16GJJ)	.	.	.
=73	=73	=73	=73
*ped	*	*	*
(16AA-LL	(8dd^L	(8e-^L	.
16F	.	.	.
*Xped	*	*	*
16C	8cc')	8e-')	.
16F	.	.	.
16AA-	([8ccJ	8f'J	.
16FJJ)	.	.	.
=74	=74	=74	=74
(8GGL	8ccL]	8e-L	.
8GJ)	16bnL	8dJ	.
.	16ccJ	.	.
8r	8dd'J)	8rc	.
*	*v	*v	*
!!LO:LB:g=z
=75	=75	=75
(16cLL	8r	.
16g	.	.
16e-	8gg'L	p
16g	.	.
16c	8gg'J	.
16gJJ)	.	.
=76	=76	=76
*ped	*	*
(16BnLL	(<8gg^L	<
16g	.	.
*Xped	*	*
16d	8ff') 8gg'	.
16g	.	.
16B	8ff' 8gg'J	.
16gJJ)	.	.
=77	=77	=77
*ped	*	*
(16cLL	(<8ff^ 8gg^L	.
16g	.	.
*Xped	*	*
16e-	8ee-') 8gg'	.
16g	.	.
16c	8ee-' 8gg'J	.
16gJJ)	.	.
=78	=78	=78
*ped	*	*
(16GLL	(<8ee-^ 8gg^L	.
16g	.	.
*Xped	*	*
16d	8dd') 8gg'	.
16g	.	.
16G	8dd' 8gg'J	.
16gJJ)	.	.
=79	=79	=79
*ped	*	*
(16A-LL	8dd^ (8gg^L	mf
16f	.	.
*Xped	*	*
16c	8cc' 8ff')	.
16f	.	.
16A-	8cc' 8ff'J	>
16fJJ)	.	.
!!LO:LB:g=z
=80	=80	=80
*ped	*	*
(16GLL	8cc^ (8ee-^L	.
16g	.	.
*Xped	*	*
16d	8cc' 8dd')	.
16g	.	.
16G	8bn' 8dd'J	.
16gJJ)	.	.
=81	=81	=81
*ped	*	*
(16cLL	8cc' 8ee-'	p
16g	.	.
*Xped	*	*
16e-	8gg'L	.
16g	.	.
16c	8gg'J	.
16gJJ)	.	.
=82	=82	=82
*ped	*	*
(16BnLL	(<8gg^L	<
16g	.	.
*Xped	*	*
16d	8ff') 8gg'	.
16g	.	.
16B	8ff' 8gg'J	.
16gJJ)	.	.
=83	=83	=83
*ped	*	*
(16cLL	(<8ff^ 8gg^L	.
16g	.	.
*Xped	*	*
16e-	8ee-') 8gg'	.
16g	.	.
16c	8ee-' 8gg'J	.
16gJJ)	.	.
=84	=84	=84
*ped	*	*
(16GLL	(<8ee-^ 8gg^L	.
*Xped	*	*
16g	.	.
16e-	8dd-') 8bb-'	.
16g	.	.
16G	8dd-' 8bb-'J	.
16gJJ)	.	.
!!LO:LB:g=z
=85	=85	=85
*ped	*	*
(16A-LL	8dd-^ (8bb-^L	mf
16e-	.	.
*Xped	*	*
16c	8cc' 8aa-')	.
16e-	.	.
16A-	8cc' 8aa-'J	.
16e-JJ)	.	.
=86	=86	=86
*ped	*	*
(16E-LL	8cc^ (8aa-^L	.
16e-	.	.
*Xped	*	*
16B-	8b-' 8gg')	.
16e-	.	.
16En	8b-' 8gg'J	.
16cJJ)	.	.
=87	=87	=87
*ped	*	*
(16FLL	8b-^ (8gg^L	.
16f	.	.
*Xped	*	*
16c	8a-' 8ff')	.
16f	.	.
16F	8a-' 8ff'J	.
16fJJ)	.	.
=88	=88	=88
*ped	*	*
(16CLL	8a-^ (8ff^L	.
16c	.	.
*Xped	*	*
16G	8g' 8een')	.
16c	.	.
16C	8en' 8cc'J	p
16cJJ)	.	.
=89	=89	=89
*ped	*	*
(16D-LL	8f^ (>8cc^L	.
16B-	.	.
*Xped	*	*
16F	8f' 8b-')	.
16B-	.	.
16D-	8f' 8g'J	.
16B-JJ)	.	.
!!LO:LB:g=z
=90	=90	=90
*ped	*	*
(16CLL	(8f^ 8a-^L	.
16c	.	.
*Xped	*	*
16G	8e-') 8g'	.
16c	.	.
16C	8e-' 8cc'J	mf
16cJJ)	.	.
=91	=91	=91
*ped	*	*
(16D-LL	8f^ (8cc^L	.
16B-	.	.
*Xped	*	*
16F	8f' 8b-')	.
16B-	.	.
16D-	8g' 8ff'J	.
16B-JJ)	.	.
=92	=92	=92
*	*^	*
*ped	*	*	*
(16CLL	(8ffL	8a-L	.
16c	.	.	.
*Xped	*	*	*
16G	16eenL	8cc	.
16c	16ffJ	.	.
16C	8gg'J)	8b-'J	.
16cJJ)	.	.	.
=93	=93	=93	=93
*ped	*	*	*
(16D-LL	(8gg^L	8a-^L	.
16B-	.	.	.
*Xped	*	*	*
16F	8ff')	8a-'	.
16B-	.	.	.
16D-	([8ff'J	8b-'J	.
16B-JJ)	.	.	.
=94	=94	=94	=94
(8CCL	8ffL]	8a-L	.
8C'J)	16eenL	8gJ	.
.	16ffJ	.	.
8r	8gg'J)	8rc	.
*	*v	*v	*
*clefG2	*	*
!!LO:LB:g=z
=95	=95	=95
(<8ggL	(16bb-LL	f
.	16ccc	.
8ff	16ddd-	.
.	16aa-	.
8eenJ	16gg	.
.	16aa-JJ	.
=96	=96	=96
8dd-L	16bb-LL	>
.	16ff	.
8cc	16een	.
.	16ff	.
8b-J	16gg	.
.	16dd-JJ	.
=97	=97	=97
8a-L	16ccLL	.
.	16ddn	.
8g	16een	.
.	16b-	.
8fJ	16a-	.
.	16bnJJ	.
=98	=98	=98
8e-XL	16gLL	p
.	16cc	.
8d	16bn	.
.	16cc	.
8cJ	16dd	.
.	16ee-XJJ	.
=99	=99	=99
8dL	16fLL)	<
.	(16ff	.
8c	16ee-	.
.	16dd	.
8BnJ)	16gg	.
.	16ffJJ	.
*clefF4	*	*
!!LO:LB:g=z
=100	=100	=100
*^	*	*
4.c	(8CL	16ee-LL	.
.	.	16dd	.
.	8D	16cc	.
.	.	16b-	.
.	8E-J)	16a-	.
.	.	16gJJ)	.
=101	=101	=101	=101
*	*	*^	*
4.c	(8FL	4.cc	(16a-LL	.
.	.	.	16g	.
.	8G	.	16f	.
.	.	.	16e-	.
.	8A-J)	.	16d	.
.	.	.	16cJJ)	.
*v	*v	*	*	*
=102	=102	=102	=102
4.GG 4.G	4.bn	(16gLL	f
.	.	16a-	.
.	.	16g	.
.	.	16f	.
.	.	16e-	.
.	.	16dJJ)	.
=103	=103	=103	=103
4.AA- 4.F	4.cc	(16cLL	.
.	.	16d	.
.	.	16e-	.
.	.	16f	.
.	.	16g	.
.	.	16a-JJ)	.
=104	=104	=104	=104
4.GG 4.G	4.bn	(16gLL	.
.	.	16a-	.
.	.	16g	.
.	.	16f	.
.	.	16e-	.
.	.	16dJJ)	.
!!LO:LB:g=z
=105	=105	=105	=105
4.AA- 4.F	[4.cc	(16cLL	.
.	.	16d	.
.	.	16e-	.
.	.	16f	.
.	.	16g	.
.	.	16f#JJ	.
=106	=106	=106	=106
4.GG 4.G	8ccL]	4.g)	.
.	16bnL	.	.
.	16ccJ	.	.
.	8dd'J	.	.
*	*v	*v	*
=107||	=107||	=107||
*k[]	*k[]	*
(16gLL	(16bLL	p
16f	16cc	.
16e	16dd	.
16d	16ee	.
16c	16ff	.
16BJJ	16ggJJ	.
=108	=108	=108
16cLL	16eeLL	.
16B	16ff	.
16A	16gg	.
16G	16aa	.
16F	16bb	.
16EJJ)	16cccJJ)	.
=109	=109	=109
(16gLL	(16bLL	.
16f	16cc	.
16e	16dd	.
16d	16ee	.
16c	16ff	.
16BJJ	16ggJJ	.
!!LO:LB:g=z
=110	=110	=110
*k[]	*k[]	*k[]
16cLL	16eeLL	.
16B	16ff	.
16A	16gg	.
16G	16aa	.
16F	16bb	.
16EJJ)	16cccJJ)	.
=111	=111	=111
(16FLL	(16aaLL	<
16E	16bb	.
16D	16ccc	.
16C	16ddd	.
16BB	16eee	.
16AAJJ	16fffJJ	.
=112	=112	=112
4GG	16ggLL	.
.	16fff	.
.	16eee	.
.	16ddd	.
8C)	16eee	.
.	16cccJJ	.
=113	=113	=113
(8FL	16ffLL	f
.	16ddd	.
8G)	16ee	.
.	16ccc	.
8GG'J	16dd	.
.	16bbJJ	.
=114	=114	=114
4.CC	16cccLL	.
.	16gg	.
.	16ee	>
.	16gg	.
.	16cc	.
.	16aaJJ)	]]
!!LO:LB:g=z
=115	=115	=115
(16gLL	(16bLL	p
16f	16cc	.
16e	16dd	.
16d	16ee	.
16c	16ff	.
16BJJ	16ggJJ	.
=116	=116	=116
16cLL	16eeLL	.
16B	16ff	.
16A	16gg	.
16G	16aa	.
16F	16bb	.
16EJJ)	16cccJJ)	.
=117	=117	=117
(16gLL	(16bLL	.
16f	16cc	.
16e	16dd	.
16d	16ee	.
16c	16ff	.
16BJJ	16ggJJ	.
=118	=118	=118
16cLL	16eeLL	.
16B	16ff	.
16A	16gg	.
16G	16aa	.
16F	16bb	.
16EJJ)	16cccJJ)	.
=119	=119	=119
(16FLL	(16aaLL	<
16E	16bb	.
16D	16ccc	.
16C	16ddd	.
16BB	16eee	.
16AAJJ	16fffJJ	.
!!LO:LB:g=z
=120	=120	=120
4GG	16ggLL	.
.	16fff	.
.	16eee	.
.	16ddd	.
8C)	16eee	.
.	16cccJJ	.
=121	=121	=121
(8FL	16ffLL	f
.	16ddd	.
8G)	16ee	.
.	16ccc	.
8GG'J	16dd	.
.	16bbJJ	.
=122	=122	=122
16C'	8ee' 8ccc')	.
*clefG2	*	*
(16bLL	.	.
16cc	8r	.
16g	.	.
16a	8r	.
16eJJ	.	.
=123	=123	=123
16fLL	8r	.
16a	.	.
16g	8ccc' 8ddd'L	.
16f	.	.
16e	8bb' 8fff'J	.
16dJJ	.	.
=124	=124	=124
16cLL)	8ccc' 8eee'	.
(16b	.	.
16cc	8r	.
16g	.	.
16a	8r	.
16eJJ	.	.
!!LO:LB:g=z
=125	=125	=125
16fLL	8r	.
16a	.	.
16g	8ccc' 8ddd'L	.
16f	.	.
16e	8bb' 8fff'J	.
16dJJ	.	.
=126	=126	=126
16cLL)	8ccc' 8eee'	.
(16b	.	.
16cc	8r	.
16g	.	.
16a	8r	.
16eJJ	.	.
=127	=127	=127
16fLL	8r	.
16a	.	.
16g	8ccc' 8ddd'L	.
16f	.	.
16e	8bb' 8fff'J	.
16dJJ)	.	.
*clefF4	*	*
=128	=128	=128
(8CL	(>16eeeLL	.
.	16bb	.
8E	16ccc	.
.	16gg	.
8FJ)	16aa	.
.	16eeJJ	.
=129	=129	=129
(8FL	16ffLL	.
.	16aa	.
8G)	16gg	.
.	16ff	.
8GG'J	16ee	.
.	16ddJJ	.
!!LO:LB:g=z
=130	=130	=130
(8CL	16ccLL	.
.	16b	.
8E	16cc	.
.	16g	.
8FJ)	16a	.
.	16eJJ	.
=131	=131	=131
(8FFL	16fLL	.
.	16a	.
8GG)	16g	.
.	16f	.
8GG'J	16e	.
.	16dJJ	.
=132	=132	=132
(<8CCL	16c<LL	.
.	16B<	.
8EE	16c<	.
.	16G<	.
8FFJ)	16A<	.
.	16E<JJ	.
=133	=133	=133
(<8FFL	16F<LL	.
.	16A<	.
8GG)	16G<	.
.	16F<	.
8GGG'<J	16E<	.
.	16D<JJ	.
=134	=134	=134
4.CC	4.C<)	.
==:|!	==:|!	==:|!
*-	*-	*-
!!!RDF**kern: > = above
!!!RDF**kern: < = below
!!!verovio: beamFrenchStyle 1
!!!URL-vhv: https://verovio.humdrum.org/?file=scarlatti/sonatas/L008K461.krn
!!!URL-pdf: https://github.com/craigsapp/scarlatti-keyboard-sonatas/blob/master/reference-edition/L008K461.pdf
!!!URL-youtube: https://www.youtube.com/watch?v=l3ZWO_usSYk Akira Kubota, harpsichord
!!!URL-youtube: https://www.youtube.com/watch?v=R3YLJQTn_5U Benjamin Frith, piano
!!!PTL: Domenico Scarlatti: Opere complete per clavicembalo
!!!PED: Longo, Alessandro
!!!PPR: Ricordi
!!!PPP: Milan
!!!PDT: 1906-1913
!!!YEC: 2021 Craig Stuart Sapp
!!!YEM: Licence: (CC BY-NC-SA 4.0) https://creativecommons.org/licenses/by-nc-sa/4.0
!!!ENC: Kelly Leistikow
!!!END: 2005/07/26
!!!EED: Craig Stuart Sapp
!!!EEV: 2020/12/19
